X:91
T:Cream Pot. VWMLa.091
%%VWML:Anon2-3049-p52-0
F:http://www.vwml.org/record/Anon2/3049/p52
S:Anon. MS, late 18thC, Vaughan Williams Mem. Library
O:England;Yorkshire
Z:vmp/efdss.Simon Wilson. Reviewed PJH 2008.
M:6/8
L:1/8
Q:3/8=120
K:G
G2c B2c|dBG efg|G2c B2c|dBG AFD|\
E2C- CEG|F2D- DB,G,|(B/c/d).B cAF|G3 G3:|
|:d2g f2g|afd ecA|dcB Aag|fed e^cA|\
a2f g2e|f2d e^cA|B^cd Ed^c|d3 D3|
c2c- cac|B2B- BgB|AFA ABc|dBG AFD|\
E2C- CEG|F2D- DB,G,|(B/c/d).B cAF|G3 G3:|
T:Mantua Makers Frolic. VWMLa.092
R:Country-dance
S:Anon. MS, late 18thC, Vaughan Williams Mem. Library
O:England;Yorkshire
Z:vmp/efdss.Simon Wilson. Reviewed PJH 2008.
M:2/4
L:1/8
Q:1/4=160
K:Bb
|:B2((3GFE)|DB,DF|B2((3dcB)|AFAc|\
B2((3GFE)|DB,DF|d>B F>A|B4:|
|:B>dfd|b>dcB|A>BcA|a>cB>A|\
G>ABG|g>edc|B>G (B/A/G/F/)|G4:|
|:f>dcB|b>agf|e>dcB|A>GFE|\
DFBd|EGce|cAFA|B2B,2:|
